X: 439
T:Josefin's Waltz
M:3/4
L:1/4
Q:100
C:Roger Tallroth
R:Waltz
D:Swallowtail: After the Dance
N:Posted to the woodenflute mailing list October 2001
Z:mvhp (Marguerite Plank ) 11/28/99
K:F
C F G | A c B | A G F | C2 D | B,2 B,/2B,/2 | D F E | D3 | C3 |!
C F G | A c B | A G F | C2 D | B,2 B,/2B,/2 | D E F | G3 |1 G3 :|2 G2||!
|: A/2B/2 | c A c | f2 e | d3 | c3 | B d c | B A G | A2 B/2A/2 | GAB|!
c A c | f2 e | d3 | c3 | B d c | B A G | A2 B/2A/2 | G F E |!
F3 | B, C B, | A, C F | E D E | (F3 | F3) :|!

